fs/textbox_20_regular.svg

<svg viewBox="0 0 20 20" fill="none" xmlns="http://www.w3.org/2000/svg" height="1em" width="1em">
  <path d="M6.5 6C6.22386 6 6 6.22386 6 6.5C6 6.77614 6.22386 7 6.5 7H13.5C13.7761 7 14 6.77614 14 6.5C14 6.22386 13.7761 6 13.5 6H6.5ZM6 9.5C6 9.22386 6.22386 9 6.5 9H10.5C10.7761 9 11 9.22386 11 9.5C11 9.77614 10.7761 10 10.5 10H6.5C6.22386 10 6 9.77614 6 9.5ZM6.5 12C6.22386 12 6 12.2239 6 12.5C6 12.7761 6.22386 13 6.5 13H13.5C13.7761 13 14 12.7761 14 12.5C14 12.2239 13.7761 12 13.5 12H6.5ZM17 5.5C17 4.11929 15.8807 3 14.5 3H5.5C4.11929 3 3 4.11929 3 5.5V14.5C3 15.8807 4.11929 17 5.5 17H14.5C15.8807 17 17 15.8807 17 14.5V5.5ZM5.5 4H14.5C15.3284 4 16 4.67157 16 5.5V14.5C16 15.3284 15.3284 16 14.5 16H5.5C4.67157 16 4 15.3284 4 14.5V5.5C4 4.67157 4.67157 4 5.5 4Z" fill="#212121"/>
</svg>

<svg viewBox="0 0 20 20" fill="none" xmlns="http://www.w3.org/2000/svg" height="1em" width="1em">
  <path d="M6.5 6a.5.5 0 0 0 0 1h7a.5.5 0 0 0 0-1h-7ZM6 9.5a.5.5 0 0 1 .5-.5h4a.5.5 0 0 1 0 1h-4a.5.5 0 0 1-.5-.5Zm.5 2.5a.5.5 0 0 0 0 1h7a.5.5 0 0 0 0-1h-7ZM17 5.5A2.5 2.5 0 0 0 14.5 3h-9A2.5 2.5 0 0 0 3 5.5v9A2.5 2.5 0 0 0 5.5 17h9a2.5 2.5 0 0 0 2.5-2.5v-9ZM5.5 4h9A1.5 1.5 0 0 1 16 5.5v9a1.5 1.5 0 0 1-1.5 1.5h-9A1.5 1.5 0 0 1 4 14.5v-9A1.5 1.5 0 0 1 5.5 4Z" fill="#212121"/>
</svg>
